src/images/svg/symbols/eur-basket.svg

<svg width="32" height="32" viewBox="0 0 32 32" fill="none" xmlns="http://www.w3.org/2000/svg">
<path fill-rule="evenodd" clip-rule="evenodd" d="M26.6894 17.2425C26.8471 16.6114 26.3698 16 25.7192 16H6.28077C5.6302 16 5.15284 16.6114 5.31062 17.2425L7.81062 27.2425C7.92192 27.6877 8.3219 28 8.78077 28H23.2192C23.6781 28 24.0781 27.6877 24.1894 27.2425L26.6894 17.2425ZM11.0001 19C10.4478 19 10.0001 19.4477 10.0001 20V24C10.0001 24.5523 10.4478 25 11.0001 25C11.5524 25 12.0001 24.5523 12.0001 24V20C12.0001 19.4477 11.5524 19 11.0001 19ZM15.0001 20C15.0001 19.4477 15.4478 19 16.0001 19C16.5524 19 17.0001 19.4477 17.0001 20V24C17.0001 24.5523 16.5524 25 16.0001 25C15.4478 25 15.0001 24.5523 15.0001 24V20ZM21.0001 19C20.4478 19 20.0001 19.4477 20.0001 20V24C20.0001 24.5523 20.4478 25 21.0001 25C21.5524 25 22.0001 24.5523 22.0001 24V20C22.0001 19.4477 21.5524 19 21.0001 19Z" fill="#D2D3DA"/>
<path fill-rule="evenodd" clip-rule="evenodd" d="M15.914 7.39517L13.1852 12H18.8148L16.086 7.39517C16.0473 7.32981 15.9527 7.32981 15.914 7.39517ZM21.8 12L17.5145 4.85749C17.1953 4.32551 16.6204 4 16 4C15.3796 4 14.8047 4.32551 14.4855 4.85749L10.2 12H5C4.44772 12 4 12.4477 4 13C4 13.5523 4.44772 14 5 14H9H12H20H23H27C27.5523 14 28 13.5523 28 13C28 12.4477 27.5523 12 27 12H21.8Z" fill="#D2D3DA"/>
<path d="M30.75 0H18.25C17.5596 0 17 0.559644 17 1.25V8.75C17 9.44036 17.5596 10 18.25 10H30.75C31.4404 10 32 9.44036 32 8.75V1.25C32 0.559644 31.4404 0 30.75 0Z" fill="#0D47A1"/>
<path d="M24.605 7.93291L24.7087 8.24878L25.0365 8.25136C25.0789 8.25169 25.0965 8.30669 25.0624 8.33232L24.7987 8.53011L24.8975 8.84756C24.9103 8.88863 24.8643 8.92267 24.8297 8.89758L24.5631 8.70395L24.2965 8.89758C24.262 8.92264 24.2159 8.88866 24.2287 8.84756L24.3275 8.53011L24.0639 8.33232C24.0297 8.30669 24.0473 8.25169 24.0898 8.25136L24.4175 8.24878L24.5212 7.93291C24.5346 7.89199 24.5916 7.89199 24.605 7.93291ZM22.99 7.40333L23.0937 7.71919L23.4214 7.72178C23.4639 7.72211 23.4814 7.77711 23.4473 7.80273L23.1836 8.00053L23.2825 8.31797C23.2953 8.35904 23.2492 8.39309 23.2147 8.368L22.9481 8.17437L22.6814 8.368C22.6469 8.39306 22.6008 8.35907 22.6136 8.31797L22.7125 8.00053L22.4488 7.80273C22.4147 7.77711 22.4323 7.72211 22.4747 7.72178L22.8025 7.71922L22.9062 7.40336C22.9196 7.36241 22.9766 7.36241 22.99 7.40333ZM26.244 7.40333C26.2574 7.36241 26.3143 7.36241 26.3278 7.40336L26.4315 7.71922L26.7592 7.72178C26.8017 7.72211 26.8193 7.77711 26.7851 7.80273L26.5215 8.00053L26.6203 8.31797C26.6331 8.35907 26.587 8.39306 26.5525 8.368L26.2859 8.17437L26.0193 8.368C25.9847 8.39309 25.9387 8.35904 25.9515 8.31797L26.0503 8.00053L25.7866 7.80273C25.7525 7.77711 25.7701 7.72211 25.8125 7.72178L26.1403 7.71919L26.244 7.40333ZM27.5495 6.16217L27.6532 6.47803L27.981 6.48062C28.0234 6.48095 28.041 6.53595 28.0069 6.56157L27.7432 6.75937L27.8421 7.07681C27.8549 7.11794 27.8088 7.15193 27.7743 7.12684L27.5076 6.93321L27.241 7.12684C27.2065 7.1519 27.1604 7.11791 27.1732 7.07681L27.2721 6.75937L27.0084 6.56157C26.9743 6.53595 26.9918 6.48095 27.0343 6.48062L27.362 6.47803L27.4657 6.16217C27.4792 6.1213 27.5361 6.1213 27.5495 6.16217ZM21.7557 6.14255L21.7683 6.16217L21.872 6.47803L22.1997 6.48062C22.2337 6.48088 22.2517 6.51613 22.2401 6.54334L22.2256 6.56157L21.9619 6.75937L22.0608 7.07681C22.071 7.10969 22.0436 7.13802 22.0145 7.13521L21.993 7.12684L21.7264 6.93321L21.4597 7.12684C21.4321 7.14691 21.3971 7.12917 21.3908 7.10022L21.3919 7.07681L21.4908 6.75937L21.2271 6.56157C21.1998 6.54107 21.2056 6.50177 21.2307 6.4867L21.253 6.48062L21.5808 6.47803L21.6845 6.16217C21.6952 6.12948 21.7338 6.12294 21.7557 6.14255ZM27.9428 4.54208L28.0465 4.85794L28.3743 4.86053C28.4167 4.86086 28.4343 4.91586 28.4002 4.94148L28.1365 5.13928L28.2354 5.45672C28.2482 5.49779 28.2021 5.53184 28.1676 5.50675L27.9009 5.31312L27.6343 5.50675C27.5998 5.53181 27.5537 5.49782 27.5665 5.45672L27.6654 5.13928L27.4017 4.94148C27.3676 4.91586 27.3851 4.86086 27.4276 4.86053L27.7553 4.85794L27.859 4.54208C27.8724 4.50122 27.9294 4.50122 27.9428 4.54208ZM21.2672 4.54208L21.3709 4.85794L21.6986 4.86053C21.7411 4.86086 21.7586 4.91586 21.7245 4.94148L21.4608 5.13928L21.5597 5.45672C21.5725 5.49779 21.5264 5.53184 21.4919 5.50675L21.2253 5.31312L20.9586 5.50675C20.9241 5.53181 20.878 5.49782 20.8908 5.45672L20.9897 5.13928L20.726 4.94148C20.6919 4.91586 20.7095 4.86086 20.7519 4.86053L21.0797 4.85794L21.1834 4.54208C21.1968 4.50122 21.2538 4.50122 21.2672 4.54208ZM21.7683 2.77136L21.872 3.08723L22.1997 3.08982C22.2422 3.09014 22.2597 3.14514 22.2256 3.17077L21.9619 3.36857L22.0608 3.68601C22.0736 3.72708 22.0275 3.76113 21.993 3.73604L21.7264 3.54241L21.4597 3.73604C21.4252 3.7611 21.3791 3.72711 21.3919 3.68601L21.4908 3.36857L21.2271 3.17077C21.193 3.14514 21.2106 3.09014 21.253 3.08982L21.5808 3.08723L21.6845 2.77136C21.6979 2.73047 21.7548 2.73047 21.7683 2.77136ZM27.5369 2.75174L27.5495 2.77136L27.6532 3.08723L27.981 3.08982C28.0149 3.09008 28.033 3.12533 28.0214 3.15254L28.0069 3.17077L27.7432 3.36857L27.8421 3.68601C27.8523 3.71889 27.8249 3.74722 27.7958 3.7444L27.7743 3.73604L27.5076 3.54241L27.241 3.73604C27.2134 3.75611 27.1784 3.73833 27.172 3.70939L27.1732 3.68601L27.2721 3.36857L27.0084 3.17077C26.9811 3.15027 26.9869 3.11097 27.012 3.0959L27.0343 3.08982L27.362 3.08723L27.4657 2.77136C27.4765 2.73865 27.5151 2.73211 27.5369 2.75174ZM26.3278 1.53023L26.4315 1.8461L26.7593 1.84869C26.8017 1.84901 26.8193 1.90401 26.7852 1.92964L26.5215 2.12744L26.6203 2.44488C26.6331 2.48595 26.5871 2.52 26.5526 2.49491L26.2859 2.30128L26.0193 2.49491C25.9847 2.51997 25.9387 2.48598 25.9515 2.44488L26.0503 2.12744L25.7866 1.92964C25.7525 1.90401 25.7701 1.84901 25.8125 1.84869L26.1403 1.8461L26.244 1.53023C26.2574 1.48937 26.3143 1.48937 26.3278 1.53023ZM22.9774 1.51062L22.99 1.53023L23.0937 1.8461L23.4214 1.84869C23.4554 1.84895 23.4734 1.8842 23.4618 1.91141L23.4473 1.92964L23.1836 2.12744L23.2825 2.44488C23.2927 2.47776 23.2653 2.50609 23.2362 2.50327L23.2147 2.49491L22.9481 2.30128L22.6814 2.49491C22.6538 2.51498 22.6188 2.4972 22.6125 2.46826L22.6136 2.44488L22.7125 2.12744L22.4488 1.92964C22.4215 1.90914 22.4273 1.86984 22.4524 1.85477L22.4747 1.84869L22.8025 1.8461L22.9062 1.53023C22.9169 1.49754 22.9555 1.491 22.9774 1.51062ZM24.605 1.15128L24.7087 1.46714L25.0365 1.46973C25.0789 1.47005 25.0965 1.52505 25.0624 1.55068L24.7987 1.74848L24.8975 2.06592C24.9103 2.10699 24.8643 2.14104 24.8297 2.11595L24.5631 1.92232L24.2965 2.11595C24.262 2.14101 24.2159 2.10702 24.2287 2.06592L24.3275 1.74848L24.0639 1.55068C24.0297 1.52505 24.0473 1.47005 24.0898 1.46973L24.4175 1.46714L24.5212 1.15128C24.5346 1.11038 24.5916 1.11038 24.605 1.15128Z" fill="#FFEB3B"/>
<path fill-rule="evenodd" clip-rule="evenodd" d="M30.75 0.625H18.25C17.9048 0.625 17.625 0.904822 17.625 1.25V8.75C17.625 9.09518 17.9048 9.375 18.25 9.375H30.75C31.0952 9.375 31.375 9.09518 31.375 8.75V1.25C31.375 0.904822 31.0952 0.625 30.75 0.625ZM18.25 0C17.5596 0 17 0.559644 17 1.25V8.75C17 9.44036 17.5596 10 18.25 10H30.75C31.4404 10 32 9.44036 32 8.75V1.25C32 0.559644 31.4404 0 30.75 0H18.25Z" fill="black" fill-opacity="0.04"/>
</svg>

<svg width="32" height="32" fill="none" xmlns="http://www.w3.org/2000/svg"><path fill-rule="evenodd" clip-rule="evenodd" d="M26.69 17.242A1 1 0 0 0 25.72 16H6.28a1 1 0 0 0-.97 1.242l2.5 10a1 1 0 0 0 .97.758h14.44a1 1 0 0 0 .97-.758l2.5-10ZM11 19a1 1 0 0 0-1 1v4a1 1 0 1 0 2 0v-4a1 1 0 0 0-1-1Zm4 1a1 1 0 1 1 2 0v4a1 1 0 1 1-2 0v-4Zm6-1a1 1 0 0 0-1 1v4a1 1 0 1 0 2 0v-4a1 1 0 0 0-1-1ZM15.914 7.395 13.185 12h5.63l-2.729-4.605a.1.1 0 0 0-.172 0ZM21.8 12l-4.285-7.143a1.766 1.766 0 0 0-3.03 0L10.2 12H5a1 1 0 1 0 0 2h22a1 1 0 1 0 0-2h-5.2Z" fill="#D2D3DA"/><path d="M30.75 0h-12.5C17.56 0 17 .56 17 1.25v7.5c0 .69.56 1.25 1.25 1.25h12.5c.69 0 1.25-.56 1.25-1.25v-7.5C32 .56 31.44 0 30.75 0Z" fill="#0D47A1"/><path d="m24.605 7.933.104.316.328.002c.042 0 .06.056.025.081l-.263.198.099.318c.012.04-.034.075-.068.05l-.267-.194-.266.194c-.035.025-.081-.01-.068-.05l.099-.318-.264-.198c-.034-.025-.017-.08.026-.08l.328-.003.103-.316c.014-.041.07-.041.084 0Zm-1.615-.53.104.316.327.003c.043 0 .06.055.026.08l-.263.199.098.317c.013.041-.033.075-.067.05l-.267-.194-.267.194c-.034.025-.08-.009-.067-.05l.098-.317-.263-.198c-.034-.026-.017-.08.026-.081l.327-.003.104-.316a.044.044 0 0 1 .084 0Zm3.254 0c.013-.04.07-.04.084 0l.104.316.327.003c.043 0 .06.055.026.08l-.264.199.1.317c.012.041-.034.075-.069.05l-.266-.194-.267.194c-.034.025-.08-.009-.067-.05l.098-.317-.263-.198c-.034-.026-.017-.08.026-.081l.327-.003.104-.316Zm1.305-1.24.104.315.328.003c.042 0 .06.055.026.08l-.264.198.1.318c.012.04-.034.075-.069.05l-.266-.194-.267.194c-.035.025-.08-.01-.068-.05l.1-.318-.265-.197c-.034-.026-.016-.081.026-.081l.328-.003.104-.316c.013-.04.07-.04.083 0Zm-5.793-.02.012.02.104.315.328.003c.034 0 .052.035.04.062l-.014.019-.264.197.099.318a.045.045 0 0 1-.046.058l-.022-.008-.267-.194-.266.194c-.028.02-.063.002-.07-.027l.002-.023.099-.318-.264-.197a.045.045 0 0 1 .004-.075l.022-.006.328-.003.104-.316c.01-.033.049-.04.07-.02Zm6.187-1.6.104.315.327.003c.043 0 .06.055.026.08l-.263.198.098.318c.013.04-.033.075-.067.05l-.267-.194-.267.194c-.034.025-.08-.01-.067-.05l.098-.318-.263-.198c-.034-.025-.017-.08.026-.08l.327-.003.104-.316c.013-.04.07-.04.084 0Zm-6.676 0 .104.315.328.003c.042 0 .06.055.025.08l-.263.198.099.318c.013.04-.034.075-.068.05l-.267-.194-.266.194c-.035.025-.081-.01-.068-.05l.099-.318-.264-.198c-.034-.025-.017-.08.026-.08l.328-.003.103-.316c.014-.04.07-.04.084 0Zm.501-1.772.104.316.328.003c.042 0 .06.055.026.08l-.264.199.099.317c.013.041-.034.075-.068.05l-.267-.194-.266.194c-.035.025-.08-.009-.068-.05l.099-.317-.264-.198c-.034-.026-.016-.08.026-.081l.328-.003.104-.316c.013-.04.07-.04.083 0Zm5.769-.02.012.02.104.316.328.003c.034 0 .052.035.04.063l-.014.018-.264.198.1.317a.045.045 0 0 1-.047.058l-.022-.008-.266-.194-.267.194c-.028.02-.063.002-.069-.027l.001-.023.1-.317-.265-.198a.045.045 0 0 1 .004-.075l.022-.006.328-.003.104-.316c.01-.032.05-.039.07-.02Zm-1.21-1.22.104.315.328.003c.043 0 .06.055.026.08l-.264.198.1.318c.012.041-.034.075-.068.05l-.267-.194-.267.194c-.034.025-.08-.009-.067-.05l.098-.318-.263-.197c-.034-.026-.017-.081.026-.081l.327-.003.104-.316c.013-.04.07-.04.084 0Zm-3.35-.02.013.02.104.315.327.003c.034 0 .052.035.04.062l-.014.019-.263.197.098.318a.045.045 0 0 1-.046.058l-.021-.008-.267-.194-.267.194c-.027.02-.062.002-.069-.027l.002-.023.098-.318-.263-.197a.045.045 0 0 1 .003-.075l.023-.006.327-.003.104-.316c.01-.032.05-.039.071-.02Zm1.628-.36.104.316.328.003c.042 0 .06.055.025.08l-.263.198.099.318c.012.041-.034.075-.068.05l-.267-.194-.266.194c-.035.025-.081-.009-.068-.05l.099-.318-.264-.197c-.034-.026-.017-.08.026-.081l.328-.003.103-.316c.014-.04.07-.04.084 0Z" fill="#FFEB3B"/><path fill-rule="evenodd" clip-rule="evenodd" d="M30.75.625h-12.5a.625.625 0 0 0-.625.625v7.5c0 .345.28.625.625.625h12.5c.345 0 .625-.28.625-.625v-7.5a.625.625 0 0 0-.625-.625ZM18.25 0C17.56 0 17 .56 17 1.25v7.5c0 .69.56 1.25 1.25 1.25h12.5c.69 0 1.25-.56 1.25-1.25v-7.5C32 .56 31.44 0 30.75 0h-12.5Z" fill="#000" fill-opacity=".04"/></svg>
